X: 20494
T: John L. Sullivan
R: reel
M: 4/4
K: Dmajor
|:D2 D2 AD D2|Addc defd|D2 FD ADFD|EAAB AGFE|
D2 D2 AD D2|Addc defg|afge fdef|dBAF BE E2:|
|:dcdB AF F2|AFBF AF F2|dcdB ADFA|Beed egfe|
dcdB AF F2|B3A Bcde|fgfe dcBA|(3Bcd AF BE E2:|

